X: 18
T: Tam Lin
R: reel
M: 4/4
L: 1/8
K: Amaj
|:c2 fcac fc|d2 fdad fd|e2 gebe ge|agfe cffe|
c2 fcac fc|d2 fdad fd|e2 gebe ge|agfe cf f2||
|:fc c2 AcFc|fc c2 AcFc|eB B2 GB B2|eB B2 efge|
fc c2 AcFc|fc c2 AcFc|d3e f3g|agfe cf f2||


Tune 248	Setting 12964

